svg/u1f998.svg

<svg viewBox="0 0 128 128" xmlns="http://www.w3.org/2000/svg">
  <path d="M43.7,64.5l-2.78,1.7c0,0,1.48,5.41,2.07,8.36s1.28,5.21,2.07,6.69c1.23,2.31,4.42,2.49,5.65,1.55 c2.56-1.94,3.91-7.82,3.91-7.82s1.35-4.84,2.09-7.45c0.6-2.13,2.02-5.31,2.02-5.31l4.82,2.29c0,0-0.27,4.82,1.52,8.83 c1.72,3.85,6.29,7.62,8.21,8.8c1.92,1.18,3.76,1.84,3.39,3.84c-0.37,1.99-3.02,6.34-4.79,8.56c-1.77,2.21-6.25,8.77-7.23,11.06 c-1.16,2.7-2.36,5.68,0.44,6.49c2.8,0.81,6.96-4.97,6.96-4.97l13.62-19.08c0,0,0.07-1.03-1.03-2.29c-1.11-1.25-1.48-1.99-2.07-3.61 s-0.81-6.71-0.81-6.71s4.79-8.92,5.68-10.03c0.89-1.11,2.43-3.17,2.43-3.17s1.39,4.59,3.91,8.85c2.85,4.82,8.47,9.7,13.72,11.7 c5.41,2.07,10.55,2.53,14.38,2.68c3.84,0.15,6.05-1.16,5.53-2.04c-0.52-0.89-10.33-2.16-10.33-2.16L99.9,70.18l-7.38-18.44 L78.44,40.08l-19.4,0.52L45.98,61.47c0,0,1.84,4.43,1.99,5.24c0.15,0.81-0.07,5.46-0.07,5.46s-0.54-1.84-0.96-3.25 c-0.3-0.99-0.37-2.73-0.37-2.73L43.7,64.5z" fill="#865B52"/>
  <path d="M33.37,37.87c0,0,6.18-6.04,8.19-8.7c3.2-4.23,5.53-9.88,2.95-11.8s-7.23,2.51-9.81,5.97 s-5.14,9-5.73,7.6s2.19-4.74,3.98-7.62c0.92-1.48,3.39-4.2,4.47-6.54c0.94-2.03,0.72-3.75-0.74-4.52c-3.25-1.72-8.41,3.23-10.1,6.59 c-2.38,4.72-3.17,10.18-3.17,10.18s-3.91-0.44-7.38,2.21c-2.5,1.91-3.84,5.9-5.16,6.64c-1.33,0.74-6.29,3.05-6.29,3.05 s-3.93,4.47-0.27,8.16c1.69,1.7,3.17,2.95,6.64,3.02c3.02,0.06,9.37-3.61,12.1-3.1s5.41,7.46,7.45,10.1c2.73,3.54,6.37,6.1,9.1,6.83 c2.73,0.74,8.38,0.76,8.38,0.76s-0.07-2.51-0.52-3.61c-0.44-1.11-1.03-2.07-0.37-2.58c0.66-0.52,2.14,1.84,2.14,3.91 c0,2.07-0.44,7.01-0.52,9.29c-0.07,2.29-0.59,6.71,2.36,7.82c2.95,1.11,5.73-1.2,6.32-2.02c0.59-0.81,1.87-2.04,1.65-2.63 s-1.92-2.14-3.1-2.29s-2.43,0.1-2.43,0.1s0.39-2.95,0.98-5.02c0.59-2.07,1.45-6.88,1.23-9.83c-0.22-2.95-2.8-6.12-1.92-7.15 s2.14-0.15,3.1,2.36c0.96,2.51,0.96,4.79,0.89,6.71c-0.07,1.92-0.44,3.69-0.44,3.69s3.46-0.16,5.02-0.22 c1.77-0.07,4.65-0.52,4.65-0.52s-0.72-5.76-0.44-8.85c0.37-4.13,3.07-8.38,5.14-10.38c2.07-1.99,4.89-4.23,5.41-2.97 c0.52,1.25-3.93,3.96-5.75,7.08c-1.73,2.96-3.61,9.07-1.48,15.42c2.14,6.34,6.27,11.43,8.7,13.28c2.43,1.84,6.49,2.95,6.34,6.27 c-0.15,3.32-6.93,11.51-8.92,14.53c-1.99,3.02-4.87,6.27-5.38,9.07c-0.52,2.8-0.89,5.83,2.8,4.2c3.69-1.62,8.33-10.62,10.33-13.28 c1.99-2.66,5.46-8.19,7.67-11.06c2.21-2.88,3.1-3.17,2.88-5.16s-4.79-3.98-5.83-6.93s-1.18-10.77,0-13.35 c1.18-2.58,2.43-4.43,2.43-4.43s4.41,10.48,7.45,14.46c4.08,5.34,11.28,9.44,19.99,10.62c8.7,1.18,10.9,0.28,7.6-0.89 c-1.25-0.44-4.64-1.75-8.06-3.47c-3.25-1.62-8.31-4.08-12.22-9.96c-4.33-6.51-6.12-18.73-13.79-27.95 c-6.34-7.62-18.49-14.32-32.38-8.7c-9.66,3.91-13.05,14.09-18.88,13.05C34.77,44.29,33.37,37.87,33.37,37.87z" fill="#D27856"/>
  <path d="M31.38,34.58c1.53,1.09,5.51-3.51,7.33-5.9c2.61-3.44,4.14-6.65,3.05-7.47 c-1.57-1.18-4.87,2.85-6.74,5.65C32.6,30.48,30.35,33.84,31.38,34.58z" fill="#FFD2AF"/>
  <path d="M21.58,39.28c0.16,2.08-0.83,3.06-1.92,3.13s-2.09-1.25-2.18-2.67c-0.09-1.42,0.73-2.63,1.83-2.7 C20.4,36.97,21.47,37.86,21.58,39.28z" fill="#010102"/>
  <path d="M5.42,40.72c0.99,0.66,1.15,3.24,0.79,4.38c-0.39,1.23-1.52,3.29-2.85,2.75 c-0.74-0.3-2.66-3.98-2.26-4.97C1.48,41.9,4.83,40.33,5.42,40.72z" fill="#2C302B"/>
  <path d="M6.01,50.31c0,0,1.97-0.64,2.66-1.28s1.67-1.48,2.41-1.18s0.98,1.38-0.39,2.46 c-1.04,0.82-2.41,1.23-2.41,1.23s-0.84,0.05-1.52-0.25C6.36,51.13,5.91,50.56,6.01,50.31z" fill="#2C302B"/>
</svg>

<svg viewBox="0 0 128 128" xmlns="http://www.w3.org/2000/svg">
  <defs/>
  <path d="M43.7,64.5 L40.92,66.2 C40.92,66.2 42.4,71.61 42.99,74.56 C43.58,77.51 44.27,79.77 45.06,81.25 C46.29,83.56 49.48,83.74 50.71,82.8 C53.27,80.86 54.62,74.98 54.62,74.98 C54.62,74.98 55.97,70.14 56.71,67.53 C57.31,65.4 58.73,62.22 58.73,62.22 L63.55,64.51 C63.55,64.51 63.28,69.33 65.07,73.34 C66.79,77.19 71.36,80.96 73.28,82.14 C75.2,83.32 77.04,83.98 76.67,85.98 C76.3,87.97 73.65,92.32 71.88,94.54 C70.11,96.75 65.63,103.31 64.65,105.6 C63.49,108.3 62.29,111.28 65.09,112.09 C67.89,112.9 72.05,107.12 72.05,107.12 L85.67,88.04 C85.67,88.04 85.74,87.01 84.64,85.75 C83.53,84.5 83.16,83.76 82.57,82.14 C81.98,80.52 81.76,75.43 81.76,75.43 C81.76,75.43 86.55,66.51 87.44,65.4 C88.33,64.29 89.87,62.23 89.87,62.23 C89.87,62.23 91.26,66.82 93.78,71.08 C96.63,75.9 102.25,80.78 107.5,82.78 C112.91,84.85 118.05,85.31 121.88,85.46 C125.72,85.61 127.93,84.3 127.41,83.42 C126.89,82.53 117.08,81.26 117.08,81.26 L99.9,70.18 L92.52,51.74 L78.44,40.08 L59.04,40.6 L45.98,61.47 C45.98,61.47 47.82,65.9 47.97,66.71 C48.12,67.52 47.9,72.17 47.9,72.17 C47.9,72.17 47.36,70.33 46.94,68.92 C46.64,67.93 46.57,66.19 46.57,66.19 L43.7,64.5 Z" fill="#865B52"/>
  <path d="M33.37,37.87 C33.37,37.87 39.55,31.83 41.56,29.17 C44.76,24.94 47.09,19.29 44.51,17.37 C41.93,15.45 37.28,19.88 34.7,23.34 C32.12,26.8 29.56,32.34 28.97,30.94 C28.38,29.54 31.16,26.2 32.95,23.32 C33.87,21.84 36.34,19.12 37.42,16.78 C38.36,14.75 38.14,13.03 36.68,12.26 C33.43,10.54 28.27,15.49 26.58,18.85 C24.2,23.57 23.41,29.03 23.41,29.03 C23.41,29.03 19.5,28.59 16.03,31.24 C13.53,33.15 12.19,37.14 10.87,37.88 C9.54,38.62 4.58,40.93 4.58,40.93 C4.58,40.93 0.65,45.4 4.31,49.09 C6,50.79 7.48,52.04 10.95,52.11 C13.97,52.17 20.32,48.5 23.05,49.01 C25.78,49.52 28.46,56.47 30.5,59.11 C33.23,62.65 36.87,65.21 39.6,65.94 C42.33,66.68 47.98,66.7 47.98,66.7 C47.98,66.7 47.91,64.19 47.46,63.09 C47.02,61.98 46.43,61.02 47.09,60.51 C47.75,59.99 49.23,62.35 49.23,64.42 C49.23,66.49 48.79,71.43 48.71,73.71 C48.64,76 48.12,80.42 51.07,81.53 C54.02,82.64 56.8,80.33 57.39,79.51 C57.98,78.7 59.26,77.47 59.04,76.88 C58.82,76.29 57.12,74.74 55.94,74.59 C54.76,74.44 53.51,74.69 53.51,74.69 C53.51,74.69 53.9,71.74 54.49,69.67 C55.08,67.6 55.94,62.79 55.72,59.84 C55.5,56.89 52.92,53.72 53.8,52.69 C54.68,51.66 55.94,52.54 56.9,55.05 C57.86,57.56 57.86,59.84 57.79,61.76 C57.72,63.68 57.35,65.45 57.35,65.45 C57.35,65.45 60.81,65.29 62.37,65.23 C64.14,65.16 67.02,64.71 67.02,64.71 C67.02,64.71 66.3,58.95 66.58,55.86 C66.95,51.73 69.65,47.48 71.72,45.48 C73.79,43.49 76.61,41.25 77.13,42.51 C77.65,43.76 73.2,46.47 71.38,49.59 C69.65,52.55 67.77,58.66 69.9,65.01 C72.04,71.35 76.17,76.44 78.6,78.29 C81.03,80.13 85.09,81.24 84.94,84.56 C84.79,87.88 78.01,96.07 76.02,99.09 C74.03,102.11 71.15,105.36 70.64,108.16 C70.12,110.96 69.75,113.99 73.44,112.36 C77.13,110.74 81.77,101.74 83.77,99.08 C85.76,96.42 89.23,90.89 91.44,88.02 C93.65,85.14 94.54,84.85 94.32,82.86 C94.1,80.87 89.53,78.88 88.49,75.93 C87.45,72.98 87.31,65.16 88.49,62.58 C89.67,60 90.92,58.15 90.92,58.15 C90.92,58.15 95.33,68.63 98.37,72.61 C102.45,77.95 109.65,82.05 118.36,83.23 C127.06,84.41 129.26,83.51 125.96,82.34 C124.71,81.9 121.32,80.59 117.9,78.87 C114.65,77.25 109.59,74.79 105.68,68.91 C101.35,62.4 99.56,50.18 91.89,40.96 C85.55,33.34 73.4,26.64 59.51,32.26 C49.85,36.17 46.46,46.35 40.63,45.31 C34.77,44.29 33.37,37.87 33.37,37.87 Z" fill="#D27856"/>
  <path d="M31.38,34.58 C32.91,35.67 36.89,31.07 38.71,28.68 C41.32,25.24 42.85,22.03 41.76,21.21 C40.19,20.03 36.89,24.06 35.02,26.86 C32.6,30.48 30.35,33.84 31.38,34.58 Z" fill="#FFD2AF"/>
  <path d="M21.58,39.28 C21.74,41.36 20.75,42.34 19.66,42.41 C18.57,42.48 17.57,41.16 17.48,39.74 C17.39,38.32 18.21,37.11 19.31,37.04 C20.4,36.97 21.47,37.86 21.58,39.28 Z" fill="#010102"/>
  <path d="M5.42,40.72 C6.41,41.38 6.57,43.96 6.21,45.1 C5.82,46.33 4.69,48.39 3.36,47.85 C2.62,47.55 0.7,43.87 1.1,42.88 C1.48,41.9 4.83,40.33 5.42,40.72 Z" fill="#2C302B"/>
  <path d="M6.01,50.31 C6.01,50.31 7.98,49.67 8.67,49.03 C9.36,48.39 10.34,47.55 11.08,47.85 C11.82,48.15 12.06,49.23 10.69,50.31 C9.65,51.13 8.28,51.54 8.28,51.54 C8.28,51.54 7.44,51.59 6.76,51.29 C6.36,51.13 5.91,50.56 6.01,50.31 Z" fill="#2C302B"/>
</svg>
